X:1
T:Amor io sent'un
T:Amor io sent'un
T:Guglielme Blotagrio
T:Source : Melodia Olympica---Anversa---P.Phalesio & G.Bzellero---1591. Editor: André Vierendeels (04/01/14).
T:Notes : Original clefs : C1, C2, C3, F4 Editorial accidentals above the staff
C:Guglielme Blotagrio
%%score [ 1 [ 2 3 ] 4 ]
L:1/8
Q:1/4=100
M:4/4
K:C
V:1 treble nm="Canto" snm="S"
V:2 treble-8 nm="Tenor 1" snm="T 1"
V:3 treble-8 nm="Tenor 2" snm="T 2"
V:4 bass nm="Basso" snm="B"
V:1
 z4 d4 | d4 z2 d2 | d3 c B2 d2 | c2 B2 A4 | A2 A2 Bc dB | c2 B2 B2 AG | A8 | B8- | B8 | z8 | z8 | %11
w: A-|mor, io|sen- t'un re- spi-|rar si dol-|ce, si dol- * * *|||ce,|_|||
 z8 | z4 d4 | d3 c B2 d2 | c2 B2 A4 | B4 z2 G2 | G3 G A2 B2 | c4 B2 d2 | c2 A2 B2 B2 | c2 c2 B4 | %20
w: |io|sen- t'un re- spi-|rar si dol-|ce, un|re- spi- rar si|dol- ce, di|Lau- ra mia, di|Lau- ra mi-|
 c4 z2 B2 | G4 G4 | A4 A4 | A8 | A2 d2 G3 A | B2 c2 A4 | G4 z4 | z2 d2 G3 A | B2 c2 d4 | B8 | z8 | %31
w: a in|que- sta|piag- gi'a-|pri-|ca, ch'an- cor la|fiam- m'an- ti-|ca,|ch'an- cor la|fiam- m'an- ti-|ca,||
 z8 | z4 z2 d2 | d2 d2 A3 B | cB cd e2 c2 | B3 c d2 B2 | A2 G2 A4 | B8 | z4 z2 d2 | B3 c d2 e2 | %40
w: |nel|cor si ri- *|* * * * * no-|vel- * * *||la,|et|si leg- gia- dr'e|
 d2 c4 B2 | c4 G2 GG | G2 G2 ^F4 | G4 G2 GG | A2 G2 G4 | ^F4 F2 FF | G2 G2 ^F4 | G2 d3 d B2 | %48
w: bel- * *|la, tu me la|mo- str'a- mo-|re, tu me la|mo- str'a- mo-|re, tu me la|mo- str'a- mo-|re, che di dol-|
 c2 d2 e3 d | c2 B2 A4 | A2 d2 c2 A2 |"^b" c3 B AG G2- | G2 ^F2 G4- | G4 z4 | z8 | z4 z2 ^F2- | %56
w: cez- za l'a- ni-|ma si mo-|re, che di dol-|cez- * * * *|* * za,|_||che|
 F^F G4 F2 | G4 G4 | z8 | z2 B3 B G2 | A3 B c2 c2 | B3 B A2 G2 | ^F2 G3 F/E/ F2 | G8 |] %64
w: _ di dol- *|cez- za,||che di dol-|cez- * * za|l'a- ni- ma si|mo- * * * *|re.|
V:2
 d8 | g8 | z2 g2 g3 f | e2 g2 f2 e2 | d4 d2 d2 | ed ef g4- | g2 fe ^f4 | g8- | g8 | z8 | z8 | z8 | %12
w: A-|mor,|io sen- t'un|re- spi- rar si|dol- ce, si|dol- * * * *||ce,|_||||
 d8 | d2 g2 g3 f | ef g4 ^f2 | g4 g2 d2 | e2 d2 f2 f2 | g4 g2 g2 | e2 ^f2 g2 g2 | g2 g2 g4 | %20
w: a-|mor io sen- t'un|re- spi- rar si|dol- ce, un|re- spi- rar si|dol- ce, di|Lau- ra mia, di|Lau- ra mi-|
 g4 z2 g2 | d6 d2 | f6 f2 | e4 e4 | z2 d2 e3 f | g2 e2 ^f4 | g4 z4 | z2 d2 d2 e2 | g2 g2 ^f4 | g8 | %30
w: a in|que- sta|piag- gi'a-|pri- ca|ch'an- cor la|fiam- m'an- ti-|ca,|ch'an- cor la|fiam- m'an- ti-|ca,|
 z8 | z8 | z2 g2 g2 g2 | d3 e fe fg | a2 a2 e3 ^f | g2 g2 g4 | f2 g4 ^f2 | g4 z2 g2 | e3 f g2 a2 | %39
w: ||nel cor si|ri- * * * * *|* no- vel- *|* la, ri-|no- vel- *|la, et|si leg- gia- dr'e|
 g8- | g8 | g4 e2 ee | d2 e2 c4 | d4 d2 dd | d2 d2 ^c4 | d4 d2 dd | e2 d2 d4 | d4 g3 g | %48
w: bel-||la, tu me la|mo- str'a- mo-|re, tu me la|mo- str'a- mo-|re, tu me la|mo- str'a- mo-|re, che di|
 e2 f2 g2 a2- | aa g4 fe | ^f2 g4 f2 |"^-natural" g3 f e2 d2 | c4 B2 d2- | dd e2 d2 e2 | %54
w: dol- cez- za l'a-|* ni- ma _ _|_ _ _|si _ _ _|mo- re, che|_ di dol- cez- za|
 f3 f e2 d2 | ^c4 d2 d2- | dd d2 e2 d2 | B2 c2 d3 d | e3 d c4 | B2 d3 d d2 | f4 g4 | g3 g e2 d2 | %62
w: l'a- ni- ma si|mo- re, che|_ di dol- cez- za|l'a- ni- ma si|mo- * *|re, che di dol-|cez- za|l'a- ni- ma si|
 d8 | d8 |] %64
w: mo-|re.|
V:3
 z8 | z8 | z8 | z8 | z8 | z8 | z4 d4 | d4 z2 d2 | d3 c B2 d2 | c2 B2 A4 | A2 A2 Bc dB | %11
w: ||||||A-|mor, io|sen- t'un re- spi-|rar si dol-|ce, si dol- * * *|
 c2 B2 B2 AG | A8 | B4 z2 G2 | A2 B2 c2 d2 | G4 d2 B2 | B3 B c2 d2 | e4 d2 B2 | c2 d2 G2 d2 | %19
w: ||ce, un|re- spi- rar si|dol- ce, un|re- spi- rar si|dol- ce, di|Lau- ra mia, di|
 e2 e2 d4 | e4 z2 d2 | B6 B2 | c2 A2 d4- | d2 cB ^c4 | d4 z4 | z4 z2 d2 | G3 A B2 c2 | A4 B2 c2 | %28
w: Lau- ra mi-|a in|que- sta|piag- gi'a- pri-||ca,|ch'an-|cor la fiam- m'an-|ti- ca, la|
 d2 G2 A4 | d4 z2 d2 | d2 d2 A3 B | cB cd e2 c2 | B4 c2 B2 | B2 B2 c2 d2 | e4 c4 | z2 d2 B3 c | %36
w: fiam- m'an- ti-|ca, nel|cor si ri- *|* * * * * no-|vel- la, nel|cor si re- no-|vel- la,|et si leg-|
 d2 e2 d4 | G8 | z8 | z2 d2 B3 c | d2 e2 d4 | c4 c2 cc | B2 c2 A4 | G4 B2 BB | A2 B2 G4 | %45
w: gia- dr'e bel-|la,||et si leg-|gia- dr'e bel-|la, tu me la|mo- str'a- mo-|re, tu me la|mo- str'a- mo-|
 A4 A2 AA | c2 B2 A4 | G8 | z8 | z4 d4 | d2 B2 c2 d2 |"^b" e3 d c2 B2 | A4 G2 B2- | BB G2 A2 B2 | %54
w: re, tu me la|mo- str'a- mo-|re,||che|di dol- cez- za|l'a- ni- ma si|mo- re, che|_ di dol- cez- za|
 c3 c B2 A2 | G4 A2 A2- | AA B2 A3 A | G4 G2 G2 | G2 G4 ^F2 | G2 B3 B B2 | c3 d e2 e2 | %61
w: l'a- ni- ma si|mo- re, che|_ di dol- cez- za|l'a- ni- ma|si mo- *|re, che di dol-|cez- * * za|
 d3 d c2 B2 | A2 G2 A4 | G8 |] %64
w: l'a- ni- ma si|mo- * *|re.|
V:4
 z8 | z8 | z8 | z8 | z8 | z8 | D,8 | G,8 | z2 G,2 G,3 F, | E,2 G,2 F,2 E,2 | D,4 D,2 D,2 | %11
w: ||||||A-|mor,|io sen- t'un|re- spi- rar si|dol- ce, si|
 E,D, E,F, G,4- | G,2 F,E, ^F,4 | G,8 | z8 | z2 G,2 G,3 F, | E,2 G,2 F,2 D,2 | C,4 G,4 | %18
w: dol- * * * *||ce,||io sen- t'un|re- spi- rar si|dol- ce,|
 z4 z2 G,2 | E,2 C,2 G,4 | C,4 G,4 | G,4 G,4 | F,4 D,4 | A,8 | D,4 z4 | z4 z2 D,2 | %26
w: di|Lau- ra mi-|a in|que- sta|piag- gi'a-|pri-|ca,|ch'an-|
 E,3 ^F, G,2 E,2 | ^F,4 G,2 C,2 | G,2 E,2 D,4 | G,,2 G,2 G,2 G,2 | D,3 E, F,E, F,G, | %31
w: cor la fiam- m'an-|ti- ca, la|fiam- m'an- ti-|ca, nel cor si|ri- * * * * *|
 A,2 F,2 E,3 F, | G,2 G,2 z2 G,2 | G,2 G,2 F,2 D,2 | A,8 | G,8 | z8 |"^-natural" z2 G,2 E,3 F, | %38
w: * no- vel- *|* la, nel|cor si re- no-|vel-|la,||et si- _|
 G,2 A,2 G,2 ^F,2 | G,8- | G,8 | C,8 | z8 | z4 G,2 G,G, | ^F,2 G,2 E,4 | D,4 D,2 D,D, | %46
w: _ leg- gia- dr'e|bel-||la,||tu me la|mo- str'a- mo-|re, tu me la|
 C,2 G,,2 D,4 | G,,8 | z8 | z8 | z8 | z8 | z4 z2 G,2- | G,G, E,2 F,2 G,2 | A,3 A, G,2 F,2 | %55
w: mo- str'a- mo-|re,|||||che|_ di dol- cez- za|l'a- ni- ma si|
 E,4 D,2 D,2- | D,D, B,,2 C,2 D,2 | E,4 B,,4 | C,3 B,, A,,4 | G,,2 G,3 G, G,2 | F,2 E,D, C,2 C,2 | %61
w: mo- re, che|_ di dol- cez- za|l'a- ni-|ma si mo-|re, che di dol-|cez- * * * za|
 G,,3 G,, A,,2 B,,2 | D,8 | G,,8 |] %64
w: l'a- ni- ma si|mo-|re.|

